X:500
T: "Der Freier"
N: Z1180
O: Europa, Mitteleuropa, Deutschland, Nord - Deutschland
R: Liebes - Lied, verlassene Liebe
M: 4/4
L: 1/8
K: G
D2 | G3AB2c2 | d3ed2
d2 | c3Bc2d2 | B4z2
D2 | G3AB2c2 | d3ed2
d2 | c3Bc2d2 | B4z2
d2 | eddBc2d2 | B2d2B2
G2 | A2c2A2A2 | B2e2d2
d2 | eddBc2d2 | B2d2B2
G2 | A2c2A2F2 | G4z2

